X: 21844
T: Kirkhill
R: jig
M: 6/8
K: Amajor
|:e|c<AA (A2e)|(f<ae) f>ga|c>AA (A2c)|(c<dA) (B2e)|
c>AA (A2e)|(f<ae) f>ga|a>ec (a2B)|(c<eA) A2:|
|:e|f>ga (a2e)|(f<ae) f>ga|a>ec (A2c)|(B<cA) (B2e)|
[1 f>ga (a2e)|(f<ae) f>ga|A>ec (a2B)|(c<eA) A2:|
[2 c>AA (A2e)|(f<ae) f>ga|a>ec (a2B)|(c<eA) A2||
|:e|A>AA (c2d)|c>dB A>ce|a>ec (A2c)|(B<cA) (B2e)|
A>AA (c2d)|c>dB A>ce|a>ec (a2B)|(c<eA) A2:|
e|f>ea (f2e)|a>ec A>Bc|a>ec (B2c)|(B<cA) B>ce|
f>ea (f2e)|a>ec A>Bc|a>ec (a2B)|(c<eA) A>ce|
f>ea (f2e)|a>ec A>Bc|a>ec (A2c)|(B<cA) B2 e|
c>dB (A2e)|f>ea A>Bc|a>ec (a2B)|(c<eA) A3||

